assets/Beating heart/Flat/beating_heart_flat.svg

<svg width="32" height="32" viewBox="0 0 32 32" fill="none" xmlns="http://www.w3.org/2000/svg">
<path d="M11.3723 4.01119C7.52675 3.04981 4.28313 4.02538 2.43851 6.79227C2.27709 7.0344 1.94995 7.09982 1.70783 6.9384C1.4657 6.77699 1.40028 6.44985 1.5617 6.20772C3.71708 2.9747 7.47345 1.95025 11.6279 2.98886C11.9102 3.05944 12.0818 3.34551 12.0113 3.62782C11.9407 3.91013 11.6546 4.08177 11.3723 4.01119Z" fill="#F92F60"/>
<path d="M20.2982 8.13362C17.8693 8.55665 16.0001 11.3703 16.0001 11.3703C16.0001 11.3703 14.1409 8.54681 11.702 8.13362C5.69472 7.10063 3.21583 12.2754 4.21538 16.1319C5.61182 21.4914 12.0072 26.6281 14.7477 28.6251C15.4987 29.1724 16.5015 29.1724 17.2526 28.6251C19.9931 26.6281 26.3884 21.4914 27.7848 16.1319C28.7844 12.2853 26.3055 7.10063 20.2982 8.13362Z" fill="#F92F60"/>
<path d="M4.91671 7.77656C5.3622 7.10525 5.92545 6.56737 6.64082 6.24209C7.3537 5.91793 8.25634 5.78719 9.41275 5.99237C9.68465 6.0406 9.94417 5.8593 9.99241 5.5874C10.0407 5.3155 9.85934 5.05598 9.58745 5.00774C8.26386 4.77291 7.1515 4.91135 6.22689 5.33178C5.30475 5.75109 4.608 6.43323 4.08349 7.22362C3.9308 7.45371 3.99354 7.76402 4.22363 7.9167C4.45372 8.06939 4.76402 8.00665 4.91671 7.77656Z" fill="#F92F60"/>
<path d="M20.6279 4.01119C24.4735 3.04981 27.7171 4.02538 29.5617 6.79227C29.7231 7.0344 30.0503 7.09982 30.2924 6.9384C30.5345 6.77699 30.5999 6.44985 30.4385 6.20772C28.2831 2.9747 24.5268 1.95025 20.3723 2.98886C20.09 3.05944 19.9184 3.34551 19.9889 3.62782C20.0595 3.91013 20.3456 4.08177 20.6279 4.01119Z" fill="#F92F60"/>
<path d="M27.0835 7.77656C26.638 7.10525 26.0747 6.56737 25.3594 6.24209C24.6465 5.91793 23.7439 5.78719 22.5874 5.99237C22.3155 6.0406 22.056 5.8593 22.0078 5.5874C21.9595 5.3155 22.1409 5.05598 22.4128 5.00774C23.7363 4.77291 24.8487 4.91135 25.7733 5.33178C26.6954 5.75109 27.3922 6.43323 27.9167 7.22362C28.0694 7.45371 28.0067 7.76402 27.7766 7.9167C27.5465 8.06939 27.2362 8.00665 27.0835 7.77656Z" fill="#F92F60"/>
</svg>

<svg xmlns="http://www.w3.org/2000/svg" width="32" height="32" fill="none"><path fill="#F92F60" d="M11.372 4.011c-3.845-.961-7.089.014-8.933 2.781a.527.527 0 1 1-.877-.584c2.155-3.233 5.911-4.258 10.066-3.22a.527.527 0 0 1-.256 1.023ZM20.298 8.134C17.87 8.557 16 11.37 16 11.37s-1.86-2.823-4.298-3.236C5.695 7.1 3.216 12.275 4.215 16.132c1.397 5.36 7.792 10.496 10.533 12.493a2.116 2.116 0 0 0 2.505 0c2.74-1.997 9.135-7.134 10.532-12.493 1-3.847-1.48-9.031-7.487-7.998Z"/><path fill="#F92F60" d="M4.917 7.777c.445-.672 1.008-1.21 1.724-1.535.713-.324 1.615-.455 2.772-.25a.5.5 0 0 0 .174-.984c-1.323-.235-2.435-.097-3.36.324-.922.42-1.619 1.101-2.144 1.892a.5.5 0 1 0 .834.553ZM20.628 4.011c3.846-.961 7.09.014 8.934 2.781a.527.527 0 0 0 .877-.584c-2.156-3.233-5.912-4.258-10.067-3.22a.527.527 0 0 0 .256 1.023Z"/><path fill="#F92F60" d="M27.084 7.777c-.446-.672-1.01-1.21-1.725-1.535-.713-.324-1.615-.455-2.772-.25a.5.5 0 1 1-.174-.984c1.323-.235 2.436-.097 3.36.324.922.42 1.62 1.101 2.144 1.892a.5.5 0 1 1-.834.553Z"/></svg>
